X: 2
T: Rising Sun, The
T: Noreen's
S: &quot;The Kilfenora Ceili Band: Set on Stone&quot; ~ track 8
M: 4/4
L: 1/8
R: reel
K: D Major
|: BAG |\
F2 AF DFAF | G2 BG DGBD | ceAc eAce | dcde fdAG |
F2 AF DFAF | GB ~B2 dBGB | Acef gecd | eddc d :|
|: efg |\
a2 fd Adfd | Adfd edcd | ~e3 f gfga | be ~e2 bege |
a2 fd Adfd | Adfd edBA | FA ~A2 GBdB | AFGE D2 :|
